src/icons/icons_set_01/023-ampoule.svg

<svg height="50" viewBox="0 0 50 50" width="50" xmlns="http://www.w3.org/2000/svg"><g transform="translate(4.489235 3.995)"><path d="m20.5107647 10.3468159c-5.6466382 0-10.2257282 4.3863382-10.2257282 9.7957435 0 6.4250588 4.4629447 8.0634488 4.4629447 11.8023388 0 .92422.7042853 1.7841894 1.7668912 2.4143394-.1990205.1375092-.3259686.3569479-.3459648.5980248 0 .2841852.2248771.5510723.6079095.7808917-.3607918.2224059-.5708418.4794083-.5708418.75618 0 .2767718.2149923.5387165.5831976.7635935-.37809.2248771-.5955535.4942353-.5955535.7710071 0 .3410224.3237241.6573329.8649118.9118641-.1936616.1509489-.3133228.3776754-.3286665.6227365 0 .6548618 1.0181247 1.2108765 2.4514071 1.4332823.2782342.4883621.7970867.7899086 1.359147.7899086s1.0809128-.3015465 1.3591471-.7899086c1.4481094-.2199347 2.4711765-.7784205 2.4711765-1.4357535-.0133938-.2418226-.1304882-.4661037-.321253-.6153229.5510724-.2471177.8846812-.5757841.8846812-.9217488 0-.279243-.2149924-.5387165-.5831977-.7635936.3756189-.2273482.5955536-.4942353.5955536-.7685359 0-.2743005-.2273483-.5510723-.6103806-.7808917.3632629-.2224059.5708417-.4794083.5708417-.75618-.0224148-.2518354-.1590169-.4795056-.3706764-.6177941 1.0428364-.63015 1.7298235-1.4827059 1.7298235-2.3970412 0-3.73889 4.4481177-5.37728 4.4481177-11.8023388 0-5.4094053-4.5766189-9.7957436-10.2257283-9.7957436zm3.4809409 21.8426584c-.391538.4387448-1.796632 1.1523992-3.4766356 1.1523992s-3.0850976-.7136544-3.4766356-1.1523992c-.0805291-2.6130304-1.3884328-3.5124064-2.5241707-5.1951869-1.280135-1.8716074-2.499179-3.6432476-2.499179-6.8116511 0-4.4096624 3.8043057-8.0001495 8.4833241-8.0001495s8.4833242 3.5904871 8.4833242 8.0001495c0 3.1684035-1.2051597 4.9400437-2.4825178 6.814428-1.1329611 1.6827805-2.4269805 2.5793796-2.5075096 5.19241z"/><path d="m20.5107647 6.91929412c.7413529 0 1.3369065-.79571883 1.3369065-1.76936236v-3.15816352c0-.97364353-.6029671-1.76936236-1.3369065-1.76936236s-1.3369065.79571883-1.3369065 1.76936236v3.15075c0 .9761147.5955536 1.77677588 1.3369065 1.77677588z"/><path d="m13.65325 8.75043588c.6375635-.36820529.7611224-1.35914706.2743006-2.19934706l-1.5716682-2.73065c-.4942353-.84267117-1.4085706-1.23558823-2.043663-.86491176-.63509234.37067647-.76112234 1.35914706-.2767718 2.20181823l1.5766106 2.71829412c.4942353.84514235 1.4060994 1.23558824 2.043663.86491177z"/><path d="m7.77185 11.7257324-2.71829412-1.5766106c-.85255588-.48435062-1.84102647-.36326298-2.21170294.2743006-.37067647.6375635.01976941 1.5568411.86491177 2.0436629l2.71829411 1.5741394c.84267118.4942353 1.83361294.3632629 2.19934706-.2743006s-.0098847-1.55437-.85255588-2.0411917z"/><path d="m37.3147647 28.7842635-2.7182941-1.5766106c-.8426712-.4942353-1.833613-.3632629-2.1993471.2743006-.3657341.6375636.0197694 1.5568412.8624406 2.043663l2.7182941 1.5741394c.8426712.4942353 1.833613.3632629 2.2018183-.2743006s-.0197694-1.55437-.8649118-2.0411918z"/><path d="m6.79820647 20.6244388c0-.7413529-.79571882-1.3369064-1.76936235-1.3369064h-3.15322118c-.97117235 0-1.76689117.602967-1.76689117 1.3369064s.79571882 1.3393777 1.76689117 1.3393777h3.15322118c.97364353 0 1.76936235-.6029671 1.76936235-1.3393777z"/><path d="m39.1459065 19.2875324h-3.1532212c-.9736435 0-1.7693624.6004958-1.7693624 1.3369064s.7957189 1.3369065 1.7693624 1.3369065h3.1532212c.9711723 0 1.7668911-.6029671 1.7668911-1.3369065s-.7957188-1.3369064-1.7668911-1.3369064z"/><path d="m6.42505882 27.2076529-2.71829411 1.5741395c-.84267118.4942352-1.23558824 1.4060994-.86491177 2.0436629s1.35914706.7586512 2.20181824.2743006l2.71829411-1.5766106c.84267118-.4942353 1.23558824-1.4060994.86244059-2.0411918-.37314764-.6350923-1.34926235-.7611223-2.19934706-.2743006z"/><path d="m34.5964706 14.0436959 2.7182941-1.5766106c.8426712-.4942353 1.2355882-1.4060994.8649118-2.0411918-.3706765-.63509232-1.3591471-.76112232-2.2018183-.2743006l-2.7182941 1.5741395c-.8426712.4942352-1.2355882 1.4060994-.8624406 2.0436629.3731477.6375635 1.3492624.7586512 2.1993471.2743006z"/><path d="m30.7117812 2.96541176c-.6375636-.36573411-1.5568412.02224059-2.043663.86491177l-1.5766106 2.71829412c-.4942352.84267117-.3632629 1.83114176.2743006 2.19934706.6375636.36820529 1.5568412-.01976942 2.043663-.86491177l1.5766106-2.71829412c.4942353-.84267117.3607917-1.83361294-.2767718-2.20181823z"/></g></svg>

<?xml version="1.0" encoding="UTF-8"?>
<svg width="50px" height="50px" viewBox="0 0 50 50" version="1.1" xmlns="http://www.w3.org/2000/svg" xmlns:xlink="http://www.w3.org/1999/xlink">
    <!-- Generator: Sketch 52.4 (67378) - http://www.bohemiancoding.com/sketch -->
    <title>023-ampoule</title>
    <desc>Created with Sketch.</desc>
    <g id="023-ampoule" stroke="none" stroke-width="1" fill="none" fill-rule="evenodd">
        <g id="Group" transform="translate(4.489235, 3.995000)" fill="#000000" fill-rule="nonzero">
            <g id="049-ampoule">
                <g id="ICONSET-01">
                    <g id="049-ampoule">
                        <path d="M20.5107647,10.3468159 C14.8641265,10.3468159 10.2850365,14.7331541 10.2850365,20.1425594 C10.2850365,26.5676182 14.7479812,28.2060082 14.7479812,31.9448982 C14.7479812,32.8691182 15.4522665,33.7290876 16.5148724,34.3592376 C16.3158519,34.4967468 16.1889038,34.7161855 16.1689076,34.9572624 C16.1689076,35.2414476 16.3937847,35.5083347 16.7768171,35.7381541 C16.4160253,35.96056 16.2059753,36.2175624 16.2059753,36.4943341 C16.2059753,36.7711059 16.4209676,37.0330506 16.7891729,37.2579276 C16.4110829,37.4828047 16.1936194,37.7521629 16.1936194,38.0289347 C16.1936194,38.3699571 16.5173435,38.6862676 17.0585312,38.9407988 C16.8648696,39.0917477 16.7452084,39.3184742 16.7298647,39.5635353 C16.7298647,40.2183971 17.7479894,40.7744118 19.1812718,40.9968176 C19.459506,41.4851797 19.9783585,41.7867262 20.5404188,41.7867262 C21.1024791,41.7867262 21.6213316,41.4851797 21.8995659,40.9968176 C23.3476753,40.7768829 24.3707424,40.2183971 24.3707424,39.5610641 C24.3573486,39.3192415 24.2402542,39.0949604 24.0494894,38.9457412 C24.6005618,38.6986235 24.9341706,38.3699571 24.9341706,38.0239924 C24.9341706,37.7447494 24.7191782,37.4852759 24.3509729,37.2603988 C24.7265918,37.0330506 24.9465265,36.7661635 24.9465265,36.4918629 C24.9465265,36.2175624 24.7191782,35.9407906 24.3361459,35.7109712 C24.6994088,35.4885653 24.9069876,35.2315629 24.9069876,34.9547912 C24.8845728,34.7029558 24.7479707,34.4752856 24.5363112,34.3369971 C25.5791476,33.7068471 26.2661347,32.8542912 26.2661347,31.9399559 C26.2661347,28.2010659 30.7142524,26.5626759 30.7142524,20.1376171 C30.7142524,14.7282118 26.1376335,10.3418735 20.4885241,10.3418735 L20.5107647,10.3468159 Z M23.9917056,32.1894743 C23.6001676,32.6282191 22.1950736,33.3418735 20.51507,33.3418735 C18.8350664,33.3418735 17.4299724,32.6282191 17.0384344,32.1894743 C16.9579053,29.5764439 15.6500016,28.6770679 14.5142637,26.9942874 C13.2341287,25.12268 12.0150847,23.3510398 12.0150847,20.1826363 C12.0150847,15.7729739 15.8193904,12.1824868 20.4984088,12.1824868 C25.1774272,12.1824868 28.981733,15.7729739 28.981733,20.1826363 C28.981733,23.3510398 27.7765733,25.12268 26.4992152,26.9970643 C25.3662541,28.6798448 24.0722347,29.5764439 23.9917056,32.1894743 Z" id="Shape"></path>
                        <path d="M20.5107647,6.91929412 C21.2521176,6.91929412 21.8476712,6.12357529 21.8476712,5.14993176 L21.8476712,1.99176824 C21.8476712,1.01812471 21.2447041,0.222405882 20.5107647,0.222405882 C19.7768253,0.222405882 19.1738582,1.01812471 19.1738582,1.99176824 L19.1738582,5.14251824 C19.1738582,6.11863294 19.7694118,6.91929412 20.5107647,6.91929412 Z" id="Shape"></path>
                        <path d="M13.65325,8.75043588 C14.2908135,8.38223059 14.4143724,7.39128882 13.9275506,6.55108882 L12.3558824,3.82043882 C11.8616471,2.97776765 10.9473118,2.58485059 10.3122194,2.95552706 C9.67712706,3.32620353 9.55109706,4.31467412 10.0354476,5.15734529 L11.6120582,7.87563941 C12.1062935,8.72078176 13.0181576,9.11122765 13.6557212,8.74055118 L13.65325,8.75043588 Z" id="Shape"></path>
                        <path d="M7.77185,11.7257324 L5.05355588,10.1491218 C4.201,9.66477118 3.21252941,9.78585882 2.84185294,10.4234224 C2.47117647,11.0609859 2.86162235,11.9802635 3.70676471,12.4670853 L6.42505882,14.0412247 C7.26773,14.53546 8.25867176,14.4044876 8.62440588,13.7669241 C8.99014,13.1293606 8.61452118,12.2125541 7.77185,11.7257324 Z" id="Shape"></path>
                        <path d="M37.3147647,28.7842635 L34.5964706,27.2076529 C33.7537994,26.7134176 32.7628576,26.84439 32.3971235,27.4819535 C32.0313894,28.1195171 32.4168929,29.0387947 33.2595641,29.5256165 L35.9778582,31.0997559 C36.8205294,31.5939912 37.8114712,31.4630188 38.1796765,30.8254553 C38.5478818,30.1878918 38.1599071,29.2710853 37.3147647,28.7842635 Z" id="Shape"></path>
                        <path d="M6.79820647,20.6244388 C6.79820647,19.8830859 6.00248765,19.2875324 5.02884412,19.2875324 L1.87562294,19.2875324 C0.904450588,19.2875324 0.108731765,19.8904994 0.108731765,20.6244388 C0.108731765,21.3583782 0.904450588,21.9638165 1.87562294,21.9638165 L5.02884412,21.9638165 C6.00248765,21.9638165 6.79820647,21.3608494 6.79820647,20.6244388 Z" id="Shape"></path>
                        <path d="M39.1459065,19.2875324 L35.9926853,19.2875324 C35.0190418,19.2875324 34.2233229,19.8880282 34.2233229,20.6244388 C34.2233229,21.3608494 35.0190418,21.9613453 35.9926853,21.9613453 L39.1459065,21.9613453 C40.1170788,21.9613453 40.9127976,21.3583782 40.9127976,20.6244388 C40.9127976,19.8904994 40.1170788,19.2875324 39.1459065,19.2875324 Z" id="Shape"></path>
                        <path d="M6.42505882,27.2076529 L3.70676471,28.7817924 C2.86409353,29.2760276 2.47117647,30.1878918 2.84185294,30.8254553 C3.21252941,31.4630188 4.201,31.5841065 5.04367118,31.0997559 L7.76196529,29.5231453 C8.60463647,29.02891 8.99755353,28.1170459 8.62440588,27.4819535 C8.25125824,26.8468612 7.27514353,26.7208312 6.42505882,27.2076529 Z" id="Shape"></path>
                        <path d="M34.5964706,14.0436959 L37.3147647,12.4670853 C38.1574359,11.97285 38.5503529,11.0609859 38.1796765,10.4258935 C37.809,9.79080118 36.8205294,9.66477118 35.9778582,10.1515929 L33.2595641,11.7257324 C32.4168929,12.2199676 32.0239759,13.1318318 32.3971235,13.7693953 C32.7702712,14.4069588 33.7463859,14.5280465 34.5964706,14.0436959 Z" id="Shape"></path>
                        <path d="M30.7117812,2.96541176 C30.0742176,2.59967765 29.15494,2.98765235 28.6681182,3.83032353 L27.0915076,6.54861765 C26.5972724,7.39128882 26.7282447,8.37975941 27.3658082,8.74796471 C28.0033718,9.11617 28.9226494,8.72819529 29.4094712,7.88305294 L30.9860818,5.16475882 C31.4803171,4.32208765 31.3468735,3.33114588 30.70931,2.96294059 L30.7117812,2.96541176 Z" id="Shape"></path>
                    </g>
                </g>
            </g>
        </g>
    </g>
</svg>
